src/status/16/si-syncthing-9.svg

<svg xmlns="http://www.w3.org/2000/svg" viewBox="0 0 16 16">
 <path style="fill:#2e3440;opacity:1;fill-opacity:1;stroke:none;fill-rule:nonzero" d="M 0.9999 7.9999 A 7 7 0 0 0 7.9999 14.9999 7 7 0 0 0 8.08389 14.99599 1.5 1.5 0 0 0 9.888573 15.949117 1.5 1.5 0 0 0 10.988179 14.320213 7 7 0 0 0 14.9999 7.999901 7 7 0 0 0 13.845603 4.158104 1.5 1.5 0 0 0 13.560448 2.439353 1.5 1.5 0 0 0 11.84365 2.154198 7 7 0 0 0 7.999899 0.9999 7 7 0 0 0 5.566308 1.445211 1.5 1.5 0 0 0 4.111229 1.050682 1.5 1.5 0 0 0 3.00185 2.591697 a 1.5 1.5 0 0 0 0.04883 0.296875 1.5 1.5 0 0 0 0.04297 0.126953 7 7 0 0 0 -2.093751 4.984375 z m 0.999999 -0.000001 a 6 6 0 0 1 1.734377 -4.210936 1.5 1.5 0 0 0 1.154295 0.160156 1.5 1.5 0 0 0 0.257815 -0.095699 l 2 2 a 1.5 1.5 0 0 0 0.291015 1.705077 1.5 1.5 0 0 0 0.740235 0.404297 l 0.648 5.195 a 1.5 1.5 0 0 0 -0.740234 0.835937 6 6 0 0 1 -0.087898 0.0039 A 6 6 0 0 1 1.999893 7.999892 z M 5.853415 3.146383 A 1.5 1.5 0 0 0 5.992088 2.353417 6 6 0 0 1 7.9999 1.9999 6 6 0 0 1 11.128805 2.888572 1.5 1.5 0 0 0 11.07021 3.947166 L 9.33 5.252 A 1.5 1.5 0 0 0 7.855369 5.148338 z M 9.171775 7.839743 A 1.5 1.5 0 0 0 9.560447 7.560447 1.5 1.5 0 0 0 9.931541 6.05263 L 11.672 4.748 A 1.5 1.5 0 0 0 13.11123 4.867087 6 6 0 0 1 13.9999 7.9999 6 6 0 0 1 10.544822 13.425682 1.5 1.5 0 0 0 9.822165 13.03701 z"/>
</svg>

<svg viewBox="0 0 16 16" xmlns="http://www.w3.org/2000/svg">
 <path d="m0.9999 7.9999a7 7 0 0 0 7 7 7 7 0 0 0 0.08399-0.00391 1.5 1.5 0 0 0 1.8047 0.95313 1.5 1.5 0 0 0 1.0996-1.6289 7 7 0 0 0 4.0117-6.3203 7 7 0 0 0-1.1543-3.8418 1.5 1.5 0 0 0-0.28516-1.7188 1.5 1.5 0 0 0-1.7168-0.28516 7 7 0 0 0-3.8438-1.1543 7 7 0 0 0-2.4336 0.44531 1.5 1.5 0 0 0-1.4551-0.39453 1.5 1.5 0 0 0-1.1094 1.541 1.5 1.5 0 0 0 0.04883 0.29688 1.5 1.5 0 0 0 0.04297 0.12695 7 7 0 0 0-2.0938 4.9844zm1-1e-6a6 6 0 0 1 1.7344-4.2109 1.5 1.5 0 0 0 1.1543 0.16016 1.5 1.5 0 0 0 0.25782-0.095699l2 2a1.5 1.5 0 0 0 0.29102 1.7051 1.5 1.5 0 0 0 0.74024 0.4043l0.648 5.195a1.5 1.5 0 0 0-0.74023 0.83594 6 6 0 0 1-0.087898 0.0039 6 6 0 0 1-5.9976-5.9977zm3.8535-4.8535a1.5 1.5 0 0 0 0.13867-0.79297 6 6 0 0 1 2.0078-0.35352 6 6 0 0 1 3.1289 0.88867 1.5 1.5 0 0 0-0.058595 1.0586l-1.7402 1.3048a1.5 1.5 0 0 0-1.4746-0.10366zm3.3184 4.6934a1.5 1.5 0 0 0 0.38867-0.2793 1.5 1.5 0 0 0 0.37109-1.5078l1.7405-1.3046a1.5 1.5 0 0 0 1.4392 0.11909 6 6 0 0 1 0.88867 3.1328 6 6 0 0 1-3.4551 5.4258 1.5 1.5 0 0 0-0.72266-0.38867z" fill="#2e3440"/>
</svg>
